X: 52
T:Missa L'ami baudichon / Gloria
N: Derived from Jos0501b-Missa_Lami_Baudichon-Gloria.krn
C: Josquin des Prez
%%abc-version 2.0
%%abcx-abcm2ps-target-version 5.9.1 (29 Sep 2008)
%%abc-creator hum2abc beta
%%abcx-conversion-date 2019/02/12 16:15:40
%%abc-edited-by Jesse Rodin
%%abc-edited-by Jesse Rodin; Victoria Chang 2012/02/07
%%abcx-initial-encoding-date 2012/02/07/
%%humdrum-veritas 3650423533
%%humdrum-veritas-data 3416973741
%%linebreak <none>
%%barnumbers 0
L: 1/4
M: 3/1
Q: 1/2=120
%%staves [1 2 3 4]
V: 1 clef=treble
V: 2 clef=treble-8
V: 3 clef=treble-8
V: 4 clef=bass
K: C
[V:1] c8c4 | 
[V:2] c8e2f2 | 
[V:3] z12 :
[V:4] z12 | 
[V:1] B4A6G2 | 
[V:2] g4f6e2 | 
[V:3] x12 | 
[V:4] z12 | 
[V:1] G4F6E2 | 
[V:2] e4d2d4cB | 
[V:3] z12 :
[V:4] z12 | 
[V:1] E4D6C2 | 
[V:2] G2c2d2B4A2 | 
[V:3] x12 | 
[V:4] z12 | 
[V:1] C4z4C4 | 
[V:2] c12 | 
[V:3] z12 :
[V:4] z12 | 
[V:1] E6F2G4 | 
[V:2] z4z4c4 | 
[V:3] x12 | 
[V:4] z12 | 
[V:1] C4z4B4 | 
[V:2] e6f2g4 | 
[V:3] z12 :
[V:4] z12 | 
[V:1] c6B2A4 | 
[V:2] c3BA2G2c3d | 
[V:3] x12 | 
[V:4] z12 | 
[V:1] G4c4d4 | 
[V:2] e3de2f4g2- | 
[V:3] z12 :
[V:4] z12 | 
[V:1] e3de2f3edc | 
[V:2] g2c2g2a2f2g2- | 
[V:3] x12 | 
[V:4] z12 | 
[V:1] B2e3dc4B2 | 
[V:2] gfedc2e2d4 | 
[V:3] z12 :
[V:4] z12 | 
[V:1] c4z4c4 | 
[V:2] c12- | 
[V:3] x12 | 
[V:4] C,12- | 
[V:1] c3Bc2A4GF | 
[V:2] c8z4 | 
[V:3] z12 :
[V:4] C,8C4 | 
[V:1] E4z4A4 | 
[V:2] z12 | 
[V:3] x12 | 
[V:4] C3B,C2A,4G,F, | 
[V:1] G4c6B2 | 
[V:2] z12 | 
[V:3] z12 :
[V:4] E,4z4A,4 | 
[V:1] B4A6G2 | 
[V:2] z12 | 
[V:3] x12 | 
[V:4] G,4C6B,2 | 
[V:1] G4z4c4 | 
[V:2] z12 | 
[V:3] z12 :
[V:4] B,4A,6G,2 | 
[V:1] B2B4G2A3B | 
[V:2] z12 | 
[V:3] x12 | 
[V:4] G,4z4F,4 | 
[V:1] G4z4F4 | 
[V:2] z12 | 
[V:3] z12 :
[V:4] E,2E,4C,2D,3E, | 
[V:1] E2E4C2D3E | 
[V:2] z12 | 
[V:3] x12 | 
[V:4] C,2G,2A,2C4B,2 | 
[V:1] C2G3FE2D2C2 | 
[V:2] z12 | 
[V:3] z12 :
[V:4] C4G,2A,2B,2C2- | 
[V:1] G3FE2D2G3F | 
[V:2] z12 | 
[V:3] x12 | 
[V:4] C2G,2A,2B,2C2G,2- | 
[V:1] E3D/C/B,2C2D2E2- | 
[V:2] z12 | 
[V:3] z12 :
[V:4] G,F,E,3D,C,2B,,2C,2- | 
[V:1] EDC4B,2C4 | 
[V:2] z12 | 
[V:3] x12 | 
[V:4] C,2E,2D,4C,4 | 
[V:1] z12 | 
[V:2] c12- | 
[V:3] e12- :
[V:4] z4z4C,4- | 
[V:1] G8c4 | 
[V:2] c8c4 | 
[V:3] e4e8 | 
[V:4] C,12 | 
[V:1] B2B4AGA4 | 
[V:2] G2d3eg2f2d2- | 
[V:3] d12- :
[V:4] G,8D,4 | 
[V:1] B2d3cA2B4 | 
[V:2] d2cBA4G4 | 
[V:3] d4d8 | 
[V:4] G,4F,4G,4 | 
[V:1] c4G4E2F2 | 
[V:2] g4e2f2g4 | 
[V:3] c12- :
[V:4] C,12- | 
[V:1] G4C4G3A | 
[V:2] c4z2g3fe2 | 
[V:3] c12 | 
[V:4] C,12 | 
[V:1] B2c3BA2G2F2 | 
[V:2] d2c2f4e2d2 | 
[V:3] z12 :
[V:4] z12 | 
[V:1] E2D4G4^F2 | 
[V:2] c2B2G4A4 | 
[V:3] x12 | 
[V:4] z12 | 
[V:1] G12 | 
[V:2] G12 | 
[V:3] _B12- :
[V:4] G,12- | 
[V:1] z4z4G4 | 
[V:2] d8d4 | 
[V:3] B4_B8 | 
[V:4] G,8G,4 | 
[V:1] F2D2F3GA3B | 
[V:2] d6c2f4 | 
[V:3] A12- :
[V:4] D,6F,4D,2 | 
[V:1] c2A3GG4^F2 | 
[V:2] e2f3ed3cA2 | 
[V:3] A4A8 | 
[V:4] C,2F,4G,2D,4 | 
[V:1] G4z4G4 | 
[V:2] B3cd2e2d2g2- | 
[V:3] G12- :
[V:4] G,4B,3CD4 | 
[V:1] G3AB2c4B2 | 
[V:2] gfe2d2c2d4 | 
[V:3] G12 | 
[V:4] G,4z4G,4 | 
[V:1] c2A4_B4AG | 
[V:2] c4d4G4 | 
[V:3] z12 :
[V:4] A,4F,2G,4E,2 | 
[V:1] F3GA2G2c3d | 
[V:2] d3ef2g4^f2 | 
[V:3] x12 | 
[V:4] D,2D4B,2A,4 | 
[V:1] B8z4 | 
[V:2] g12 | 
[V:3] g12- :
[V:4] G,12 | 
[V:1] B8B4 | 
[V:2] G8G4 | 
[V:3] g4g8 | 
[V:4] z4z4E,4 | 
[V:1] A4F2A3GFE | 
[V:2] A12 | 
[V:3] f12- :
[V:4] F,8D,4- | 
[V:1] D4z4D4 | 
[V:2] F4_B6A2 | 
[V:3] f4f8 | 
[V:4] D,4_B,,8 | 
[V:1] C4E2F2G4 | 
[V:2] G4g4e2f2 | 
[V:3] e12- :
[V:4] C,12- | 
[V:1] C4z4c4 | 
[V:2] g4c8 | 
[V:3] e12 | 
[V:4] C,12 | 
[V:1] _B4A2G4FE | 
[V:2] g4f2e4dc | 
[V:3] z12 :
[V:4] z12 | 
[V:1] F2G2C4D4 | 
[V:2] d2G2A2c4B2 | 
[V:3] x12 | 
[V:4] z12 | 
[V:1] C12 | 
[V:2] c8e2f2 | 
[V:3] e12- :
[V:4] C,12- | 
[V:1] z12 | 
[V:2] g6e4dc | 
[V:3] e4e8 | 
[V:4] C,8E,2F,2 | 
[V:1] z4z4G4 | 
[V:2] B3GA2B2G4 | 
[V:3] d12- :
[V:4] G,4F,2G,4F,E, | 
[V:1] A2B4c2d4 | 
[V:2] z4G8 | 
[V:3] d4d8 | 
[V:4] D,2G,4A,2B,4 | 
[V:1] e8e4 | 
[V:2] g8c4 | 
[V:3] c12- :
[V:4] C12 | 
[V:1] e6d2c4 | 
[V:2] z2g4f2e4 | 
[V:3] c12 | 
[V:4] C,12 | 
[V:1] B4z4A4 | 
[V:2] d4g4f4 | 
[V:3] z12 :
[V:4] G,8z4 | 
[V:1] G2F4E2D3C | 
[V:2] e2d4c4B2 | 
[V:3] x12 | 
[V:4] z12 | 
[V:1] E3FG2A3GFE | 
[V:2] c12 | 
[V:3] z12 :
[V:4] C,3D,E,2F,3G,A,2 | 
[V:1] D2C2E4D4 | 
[V:2] z4z4f4 | 
[V:3] x12 | 
[V:4] B,2C3B,C2D2B,2 | 
[V:1] G3AB2c3de2 | 
[V:2] e2g3fe4dc | 
[V:3] z12 :
[V:4] C4z4C,4 | 
[V:1] f2e3dc4B2 | 
[V:2] d2c2e4d4 | 
[V:3] x12 | 
[V:4] _B,,2C,3D,E,F,G,4 | 
[V:1] c12 ||  
[V:2] c12 ||  
[V:3] c12 ||  
[V:4] C,12 ||  
[V:1] [M:2/1]z8 | 
[V:2] [M:2/1]z8 | 
[V:3] [M:2/1]z8 | 
[V:4] [M:2/1]G,8 | 
[V:1] z8 | 
[V:2] z8 | 
[V:3] z8 | 
[V:4] A,4A,4 | 
[V:1] z8 | 
[V:2] g8 | 
[V:3] z8 | 
[V:4] G,6F,E, | 
[V:1] z8 | 
[V:2] a4a4 | 
[V:3] z8 | 
[V:4] F,4F,4 | 
[V:1] z8 | 
[V:2] g6fe | 
[V:3] z8 | 
[V:4] E,6D,C, | 
[V:1] z8 | 
[V:2] f4f4 | 
[V:3] z8 | 
[V:4] D,4D,4 | 
[V:1] z8 | 
[V:2] e6dc | 
[V:3] z8 | 
[V:4] C,8 | 
[V:1] z8 | 
[V:2] d4d4 | 
[V:3] z8 | 
[V:4] z4G,4 | 
[V:1] z8 | 
[V:2] c8 | 
[V:3] z8 | 
[V:4] A,4C4- | 
[V:1] z8 | 
[V:2] z4c4 | 
[V:3] z8 | 
[V:4] C2B,2A,4 | 
[V:1] z8 | 
[V:2] d4f4- | 
[V:3] z8 | 
[V:4] G,2F,2D,4- | 
[V:1] z8 | 
[V:2] f2e2e4 | 
[V:3] z8 | 
[V:4] D,4C,4 | 
[V:1] z8 | 
[V:2] d4g4- | 
[V:3] z8 | 
[V:4] G,6A,2 | 
[V:1] z8 | 
[V:2] g2f2e4 | 
[V:3] z8 | 
[V:4] B,4C4 | 
[V:1] z8 | 
[V:2] d2e4dc | 
[V:3] z8 | 
[V:4] B,2G,2A,4 | 
[V:1] z8 | 
[V:2] B3GA2G2- | 
[V:3] z8 | 
[V:4] G,4F,2G,2 | 
[V:1] z8 | 
[V:2] G2c2B2e2- | 
[V:3] z8 | 
[V:4] E,2C,2G,3F, | 
[V:1] z8 | 
[V:2] edc4B2 | 
[V:3] z8 | 
[V:4] G,2E,2D,4 | 
[V:1] z8 | 
[V:2] c8- | 
[V:3] z8 | 
[V:4] C,8 | 
[V:1] z8 | 
[V:2] c8 | 
[V:3] z8 | 
[V:4] z8 | 
[V:1] z8 | 
[V:2] z4c4 | 
[V:3] z8 | 
[V:4] C8 | 
[V:1] z8 | 
[V:2] d4e4 | 
[V:3] z8 | 
[V:4] B,4C4 | 
[V:1] z8 | 
[V:2] c4g4- | 
[V:3] z8 | 
[V:4] A,4G,4 | 
[V:1] z8 | 
[V:2] g2f2e4 | 
[V:3] z8 | 
[V:4] C4C4 | 
[V:1] z8 | 
[V:2] d3cd2e2- | 
[V:3] z8 | 
[V:4] B,3A,B,2C2- | 
[V:1] z8 | 
[V:2] e2defedc | 
[V:3] z8 | 
[V:4] C2B,2A,4 | 
[V:1] z8 | 
[V:2] B8 | 
[V:3] z8 | 
[V:4] G,4z4 | 
[V:1] z8 | 
[V:2] z4g4 | 
[V:3] z8 | 
[V:4] G,6F,2 | 
[V:1] z8 | 
[V:2] g4f4 | 
[V:3] z8 | 
[V:4] E,4D,4 | 
[V:1] z8 | 
[V:2] e2c2d4 | 
[V:3] z8 | 
[V:4] C,4z2F,2- | 
[V:1] z8 | 
[V:2] c6B2 | 
[V:3] z8 | 
[V:4] F,2G,2A,2B,2 | 
[V:1] z8 | 
[V:2] A4G2c2- | 
[V:3] z8 | 
[V:4] C4B,2A,2- | 
[V:1] z8 | 
[V:2] c2B2A4 | 
[V:3] z8 | 
[V:4] A,2G,4^F,2 | 
[V:1] z8 | 
[V:2] G3AB3c | 
[V:3] z8 | 
[V:4] G,6E,2 | 
[V:1] z8 | 
[V:2] d2e3fg2- | 
[V:3] z8 | 
[V:4] F,2G,2C,4 | 
[V:1] z8 | 
[V:2] g2fed2e2- | 
[V:3] z8 | 
[V:4] C4B,2G,2- | 
[V:1] z8 | 
[V:2] edc4B2 | 
[V:3] z8 | 
[V:4] G,F,E,2D,4 | 
[V:1] z8 ||  
[V:2] c8 ||  
[V:3] z8 ||  
[V:4] C,8 ||  
[V:1] [M:2/1]c8- | 
[V:2] [M:2/1]c8- | 
[V:3] [M:4/2]e8- :
[V:4] [M:2/1]C,8- | 
[V:1] c4B2A2 | 
[V:2] c8 | 
[V:3] e8 | 
[V:4] C,8 | 
[V:1] G4A4 | 
[V:2] c8 | 
[V:3] e8 :
[V:4] C,8 | 
[V:1] B8 | 
[V:2] G8 | 
[V:3] d8- | 
[V:4] G,8- | 
[V:1] B4B4 | 
[V:2] g8 | 
[V:3] d8 :
[V:4] G,8 | 
[V:1] A2A4GF | 
[V:2] f4d4 | 
[V:3] d8 | 
[V:4] D,8 | 
[V:1] E6F2 | 
[V:2] e4c4- | 
[V:3] c8- :
[V:4] A,6G,F, | 
[V:1] G4A4 | 
[V:2] c2B2A4 | 
[V:3] c8 | 
[V:4] E,4F,4 | 
[V:1] B4c4 | 
[V:2] G6A2 | 
[V:3] z8 :
[V:4] G,4E,2F,2 | 
[V:1] d4e4- | 
[V:2] B4c4 | 
[V:3] z8 | 
[V:4] D,4C,4- | 
[V:1] e2c2c4- | 
[V:2] e8 | 
[V:3] z8 :
[V:4] C,8 | 
[V:1] c2BAB4 | 
[V:2] d8 | 
[V:3] z8 | 
[V:4] G,8 | 
[V:1] c4z4 | 
[V:2] z4c4 | 
[V:3] e8- :
[V:4] C,8 | 
[V:1] (3:2:2G8G4- | 
[V:2] c4c4 | 
[V:3] e8- | 
[V:4] z4C,4 | 
[V:1] (3:2:2G4G8 | 
[V:2] G2c3de2 | 
[V:3] e8 :
[V:4] C,4C,4 | 
[V:1] F6G2 | 
[V:2] f2d4cB | 
[V:3] d8- | 
[V:4] D,6E,2 | 
[V:1] A4_B4- | 
[V:2] A4G4 | 
[V:3] d8 :
[V:4] F,4G,4- | 
[V:1] B2A2A4 | 
[V:2] z8 | 
[V:3] d8 | 
[V:4] G,4D,4 | 
[V:1] F2A4GF | 
[V:2] z8 | 
[V:3] c8- :
[V:4] F,6E,2 | 
[V:1] E8 | 
[V:2] z4c4- | 
[V:3] c8 | 
[V:4] C,8 | 
[V:1] z4c4 | 
[V:2] c2B2A4 | 
[V:3] z8 :
[V:4] z8 | 
[V:1] B4A4 | 
[V:2] G4c4- | 
[V:3] z8 | 
[V:4] z8 | 
[V:1] G4G4 | 
[V:2] c2d2e4- | 
[V:3] z8 :
[V:4] z8 | 
[V:1] c6d2 | 
[V:2] e4f4 | 
[V:3] z8 | 
[V:4] z8 | 
[V:1] e6d2 | 
[V:2] e4c4- | 
[V:3] [M:2/1]g8 | 
[V:4] C,8 | 
[V:1] e4f4- | 
[V:2] c4z4 | 
[V:3] g4f4- | 
[V:4] C,4D,4 | 
[V:1] f2d4cd | 
[V:2] z8 | 
[V:3] f4f4 | 
[V:4] _B,,4D,4 | 
[V:1] e4z4 | 
[V:2] z4c4- | 
[V:3] e8 | 
[V:4] C,8- | 
[V:1] z4e4 | 
[V:2] c2B2c4 | 
[V:3] z8 | 
[V:4] C,8 | 
[V:1] f4d2e2- | 
[V:2] d4B2c2- | 
[V:3] z8 | 
[V:4] z8 | 
[V:1] e2dcB4 | 
[V:2] c2BAG4 | 
[V:3] g8 | 
[V:4] z4G,4 | 
[V:1] z4c4 | 
[V:2] G4A4- | 
[V:3] g4f4- | 
[V:4] E,4F,4 | 
[V:1] d4d4 | 
[V:2] A4B4 | 
[V:3] f4f4 | 
[V:4] D,8 | 
[V:1] e6c2 | 
[V:2] c6BA | 
[V:3] e8 | 
[V:4] C,8 | 
[V:1] d2f2e2d2- | 
[V:2] B4c2G2 | 
[V:3] z8 | 
[V:4] z8 | 
[V:1] d2c4B2 | 
[V:2] c4d4 | 
[V:3] z8 | 
[V:4] z8 | 
[V:1] c8 | 
[V:2] c6BA | 
[V:3] e8 | 
[V:4] C,6D,2 | 
[V:1] z8 | 
[V:2] G8 | 
[V:3] e4d4- | 
[V:4] E,3F,G,4- | 
[V:1] B8 | 
[V:2] g8 | 
[V:3] d4d4 | 
[V:4] G,8 | 
[V:1] c6B2 | 
[V:2] e8 | 
[V:3] c8 | 
[V:4] A,8 | 
[V:1] A6GF | 
[V:2] f8 | 
[V:3] z8 | 
[V:4] F,6E,D, | 
[V:1] E8 | 
[V:2] g8 | 
[V:3] z8 | 
[V:4] C,8- | 
[V:1] z8 | 
[V:2] c6B2 | 
[V:3] [M:2/1]e8 | 
[V:4] C,8 | 
[V:1] z8 | 
[V:2] c4d4 | 
[V:3] e4d4- | 
[V:4] z8 | 
[V:1] z8 | 
[V:2] B4z4 | 
[V:3] d4d4 | 
[V:4] z8 | 
[V:1] c6B2 | 
[V:2] e6d2 | 
[V:3] c8 | 
[V:4] C,8- | 
[V:1] c4d4 | 
[V:2] c4B2d2- | 
[V:3] z8 | 
[V:4] C,4G,4- | 
[V:1] B4z4 | 
[V:2] dcBAB4 | 
[V:3] z8 | 
[V:4] G,8 | 
[V:1] g6f2 | 
[V:2] c8 | 
[V:3] e8 | 
[V:4] C,6D,2 | 
[V:1] e2dcB2d2- | 
[V:2] G8 | 
[V:3] e4d4- | 
[V:4] E,3F,G,3A, | 
[V:1] dcBAB4 | 
[V:2] z8 | 
[V:3] d4d4 | 
[V:4] B,3CG,4 | 
[V:1] c4z4 | 
[V:2] g4a2g2- | 
[V:3] c8 | 
[V:4] C,8 | 
[V:1] G4A2G2- | 
[V:2] g2e2f2g2 | 
[V:3] z8 | 
[V:4] z8 | 
[V:1] G2FEF3G | 
[V:2] e2c2d3e | 
[V:3] z8 | 
[V:4] z8 | 
[V:1] E4z4 | 
[V:2] c8 | 
[V:3] [M:2/1]g4g2f2- | 
[V:4] [M:2/1]C,3D,E,2F,2 | 
[V:1] A4G2G2- | 
[V:2] z4c4- | 
[V:3] f2f2e4 | 
[V:4] D,2F,2C,4 | 
[V:1] G2FEF2ED | 
[V:2] c4d4 | 
[V:3] z8 | 
[V:4] z8 | 
[V:1] C4z4 | 
[V:2] e3de2f2 | 
[V:3] g4g2f2- | 
[V:4] C,6D,2 | 
[V:1] z4C3D | 
[V:2] d4z4 | 
[V:3] f2f2e4 | 
[V:4] _B,,2D,2C,4- | 
[V:1] E2F2G4 | 
[V:2] c3de3f | 
[V:3] z8 | 
[V:4] C,4z4 | 
[V:1] z2G4A2 | 
[V:2] g6f2 | 
[V:3] e4e2d2- | 
[V:4] C,3D,E,2F,2 | 
[V:1] B4c4 | 
[V:2] d2g2e2f2 | 
[V:3] d2d2c4 | 
[V:4] G,4A,4 | 
[V:1] d4e4 | 
[V:2] d4c4- | 
[V:3] z8 | 
[V:4] B,4C4 | 
[V:1] f2e4dc | 
[V:2] c4e2f2 | 
[V:3] c8 | 
[V:4] A,8 | 
[V:1] !fermata!B8 | 
[V:2] !fermata!g8 | 
[V:3] !fermata!d8 | 
[V:4] !fermata!G,8 | 
[V:1] c8 |]  
[V:2] g8 |]  
[V:3] c8 |]  
[V:4] C,8 |]  



